X: 103101
T: WILLIE SHAW
Q:"Strathspey time." 1/2=96
R: Strathspey.
%R:strathspey, shottish
Z: 2017 by John Chambers <jc:trillian.mit.edu>
B: Kerr's Merrie Melodies v.1 p.3 s.1 #1
M: C
L: 1/8
K: D
|: ug |\
vf<d B>d A2 F2 | F<A d>uf g<e e>g |\
f<d B>d A2 F2 | F<A d>e f<d d :|\
ug |\
(f<a) a2 (f<!1!a) d'2 | !0!e>!1!fe>d (c<e) e>g |
(f<a) a2 (f<!1!a) d'2 | !0!A>!1!B d>e f<d d>g |\
(f<a) a2 (f<!1!a) d'2 | !0!e>!1!fe>d (c<A) A2 |\
B<d c<e d<f e<g | f<b a>g f<d d |]

%%sep 1 1 500
%%sep 1 1 500

